X: 1
T: Sliabh Russell
M: 6/8
L: 1/8
R: jig
K: Ador
|:"Am"eAA Bcd|eaf "G"ged|"Am"edB cBA|"G"BAG "Em"ABd|
"Am"eAA Bcd|eaf "G"ged|"Am"edB cBA|1 "Em"BAG "Am"A3:|2 "G"BAG "Em"ABd||
|:"Am"eaa efg|agf "G"gfd|"Am"eaa efg|"D"afd "Em"e3|
"Am"eaa efg|agf "G"gfd|"Am"edB cBA|"G"BAG "Am"ABd:|

